!!!OTL: 137. Der Spaziergang um Mitternacht.
!!!ARE: Europa, Mitteleuropa, Deutschland, Pommern; Brandenburg; Niederrhein
!!!SCT: B0137
!!!TXL: @@DE
!!!YEM: Copyright 1995, estate of Helmut Schaffrath.
**kern	**text
*ICvox	*
*Ivox	*
*M3/4	*
*clefG2	*
*k[f#c#g#]	*
*A:	*
!LO:TX:a:t=Langſam.	!
{8e	'So
8e	al-
=1	=1
4.a	-lei-
8e	-ne
8cc#	wan-
8b	-delſt
=2	=2
(4b/	du?
4a)	.
4r}	.
=3	=3
{8.a	Schon
16g#	iſt
8f#	Mit-
8e	-ter-
8d	-nacht
8f#	vor-
=4	=4
4f#	-ü-
4e	-ber;
4r}	.
=5	=5
{8.b	Re-
16a	-gen-
8g#	-wol-
8f#	-ken
8e	ʒiehn
8d	her-
=6	=6
8c#L	-ü-
8eJ	.
4a	-ber
4r}	.
=7	=7
{8cc#	Mäd-
8a	-chen,
8cc#	Mäd-
8a	-chen
8.ee	geh
16cc#	ʒur
=8	=8
(4cc#	Ruh,
4b)	.
4r}	.
=9	=9
{8ee	Mäd-
8cc#	-chen,
8ff#	Mädchen,
8dd	.
8.cc#	geh
16b	ʒur
=10	=10
(4b/	Ruh!'
4a}=	.
==	==
!!!AGN: Ballade, Romanze
!!!GTL: Balladen und Romanzen
!!!ONB: ESAC (Essen Associative Code) Database: BOEHME
!!!AMT: simple triple
!!!AIN: vox
!!!EED: Helmut Schaffrath
!!!EEV: 1.0
!!Mündlich 1839-1844 aus Pommern, Brandenburg u. vom Niederrhein.
!!@@COMMENT:"Gedicht ʒuerſt gedruckt in "Deutſche Monatsſchrift" 1791. Dritter Bd. Berlin, 1. S. 9
!!und 10. Dort mit S. unterʒeichnet. Der Verfaſſer iſt bis jetʒt nicht ermittelt. Erk vermuthet
!!Ludwig Albrecht Schubart (Sohn des Daniel Schubart), der 1787 als Cabinetsſekretair des
!!Grafen Herʒberg ʒu Berlin, dann 1789 preußiſcher Legationsſckretair beim fränkiſchen Kreiſe in
!!Nürnberg, 1792 nach Stuttgart geʒogen, wo er am 27. December 1811 ſtarb. Doch könnte der Ver-
!!faſſer auch Klamer Schmidt ſein, oder G. W. Stark, Schink, Schwarʒ. Sangerhauſen,
!!alles Dichter, die in der Monatsſchrift 1790 95 auftreten."
!!@@END:
!!!URL-scan: https://archive.org/details/BoehmeVtLieder1895/page/n139/mode/2up
!!!ENC: Anna Maria Matuszewska
!!!EEV: 2024/18/06
*-	*-